X: 2020
M: C
L: 1/8
K: A
uf |\
(vef/g/ a)ue fdec | B=ggB d2(df) |\
(ef/g/ a)e fdec | Aaac e3 ::\
f |\
eAcA eAcA |
[1 eAcA aecA | Aaac e3 :|\
[2 af=ge fdec | bBBc d3 :|


